img/torch.svg

<svg width="34" height="83" viewBox="0 0 34 83" fill="none" xmlns="http://www.w3.org/2000/svg">
<g filter="url(#filter0_d_1617_9662)">
<path d="M19.1479 15.66L10.2587 17.2762C10.3949 15.7622 10.5265 13.9985 10.573 12.4178C10.6037 11.3779 10.5985 10.3877 10.5275 9.58915C10.4922 9.19167 10.438 8.81094 10.3528 8.48208C10.2968 8.26635 10.2058 7.98149 10.0358 7.72298C10.1457 7.48997 10.3802 7.15873 10.7265 6.76866C11.2015 6.2336 11.7794 5.70627 12.2372 5.33284L14.7287 6.99408L14.8439 7.07089L14.9363 7.10169C14.9515 7.11239 14.9881 7.13938 15.0465 7.19412C15.1601 7.30052 15.3092 7.46704 15.4892 7.70465C15.8482 8.17847 16.2774 8.86483 16.7388 9.74198C17.5385 11.2622 18.4042 13.2964 19.1479 15.66ZM9.98041 7.86932C9.97956 7.86986 9.98057 7.86225 9.98603 7.84484C9.98399 7.86008 9.98127 7.86878 9.98041 7.86932Z" fill="#FCA21B" stroke="#FF0000" stroke-width="2.06721"/>
<path d="M25.6388 73.3189C20.4707 55.7476 9.92796 20.3983 9.10107 19.5714C12.6876 17.8921 14.8985 17.3254 19.4371 17.5042L28.7396 72.2853L25.6388 73.3189Z" fill="#6A5A50"/>
<path d="M9.10082 19.5713C11.168 18.1932 16.3361 15.8503 20.4705 17.5041M9.10082 19.5713C10.2513 11.6285 9.65544 8.44725 6 5.10082C6.68907 4.41175 9.10082 4.68738 13.2352 11.3025L9.10082 2C10.8235 2.68907 14.6823 5.72098 16.3361 12.3361C15.3025 11.3025 13.6487 10.2688 15.3025 14.4033M9.10082 19.5713L13.7284 34.611M20.4705 17.5041L22.6547 31.9746M20.4705 17.5041C19.4369 10.2689 15.647 4.75629 14.2688 5.10082M22.6547 31.9746H27.7057V43.3442H24.3709M22.6547 31.9746L13.7284 34.611M22.6547 31.9746L24.3709 43.3442M13.7284 34.611L17.0516 45.4114M17.0516 45.4114L25.6385 73.3188L28.7393 72.2852L24.3709 43.3442M17.0516 45.4114L24.3709 43.3442" stroke="black" stroke-width="2.06721"/>
</g>
<defs>
<filter id="filter0_d_1617_9662" x="0.505371" y="0.0957031" width="33.3857" height="82.5381" filterUnits="userSpaceOnUse" color-interpolation-filters="sRGB">
<feFlood flood-opacity="0" result="BackgroundImageFix"/>
<feColorMatrix in="SourceAlpha" type="matrix" values="0 0 0 0 0 0 0 0 0 0 0 0 0 0 0 0 0 0 127 0" result="hardAlpha"/>
<feOffset dy="4"/>
<feGaussianBlur stdDeviation="2"/>
<feComposite in2="hardAlpha" operator="out"/>
<feColorMatrix type="matrix" values="0 0 0 0 0 0 0 0 0 0 0 0 0 0 0 0 0 0 0.25 0"/>
<feBlend mode="normal" in2="BackgroundImageFix" result="effect1_dropShadow_1617_9662"/>
<feBlend mode="normal" in="SourceGraphic" in2="effect1_dropShadow_1617_9662" result="shape"/>
</filter>
</defs>
</svg>

<svg width="34" height="83" fill="none" xmlns="http://www.w3.org/2000/svg"><g filter="url(#a)"><path d="m19.1 15.7-8.8 1.6a84.2 84.2 0 0 0 .2-7.7l-.1-1.1-.4-.8.7-1 1.5-1.4L14.7 7h.1l.1.1h.1l.5.6 1.2 2c.8 1.6 1.7 3.6 2.4 6ZM10 7.9Z" fill="#FCA21B" stroke="red" stroke-width="2.1"/><path d="M25.6 73.3A1288 1288 0 0 0 9.1 19.6c3.6-1.7 5.8-2.3 10.3-2.1l9.3 54.8-3 1Z" fill="#6A5A50"/><path d="M9.1 19.6c2-1.4 7.2-3.7 11.4-2.1M9 19.5c1.2-7.9.6-11-3.1-14.4.7-.7 3.1-.4 7.2 6.2L9.1 2c1.7.7 5.6 3.7 7.2 10.3-1-1-2.7-2-1 2.1m-6.2 5.2 4.6 15m6.8-17.1L22.7 32m-2.2-14.5c-1-7.2-4.9-12.7-6.2-12.4M22.7 32h5v11.3h-3.3M22.7 32l-9 2.6m9-2.6 1.7 11.3m-10.7-8.7 3.4 10.8m0 0 8.5 28 3.1-1.1-4.3-29M17 45.4l7.3-2" stroke="#000" stroke-width="2.1"/></g><defs><filter id="a" x=".5" y=".1" width="33.4" height="82.5" filterUnits="userSpaceOnUse" color-interpolation-filters="sRGB"><feFlood flood-opacity="0" result="BackgroundImageFix"/><feColorMatrix in="SourceAlpha" values="0 0 0 0 0 0 0 0 0 0 0 0 0 0 0 0 0 0 127 0" result="hardAlpha"/><feOffset dy="4"/><feGaussianBlur stdDeviation="2"/><feComposite in2="hardAlpha" operator="out"/><feColorMatrix values="0 0 0 0 0 0 0 0 0 0 0 0 0 0 0 0 0 0 0.25 0"/><feBlend in2="BackgroundImageFix" result="effect1_dropShadow_1617_9662"/><feBlend in="SourceGraphic" in2="effect1_dropShadow_1617_9662" result="shape"/></filter></defs></svg>
